X: 1
T: Polska efter Vilhelm Hedlund
O: Enviken, Sweden
R: polska
S: https://www.nyckelharpa.org/wp-content/uploads/NyckNotes46.pdf
Z: 2022 John Chambers <jc:trillian.mit.edu>
N: Experimental compaction using a nested repeat.
M: 2/4
L: 1/16
P: Play (A1 A2)x2 + (B C1 C2)x2
K: Gm
%%slurgraces 1
%%graceslurs 1
"^A"|:\
D3G (Bd)BG ^F3A | G3B d4 g4 | f3=e d2c2 \
[1,3 BcBA | G2^FG A2F2 D4 :|[2,4 (Bd)BG | A2^F2 G8 :|
"^B"|:\
{ga}g2{ag}^fg a6 d2 | b3a f4 d4 | A3^c =e4 g4 | {fg}f2{gf}=e^c d6 d2 |
"^C"|:\
{de}d2(ce e2)e2 c2c2 | {cd}c2(Bc d2)^F2 G2A2 \
| B3(c B3)(A ^F3)G | (AB)A^F [1 D6 d2 :|[2 [G8G,8] :|:|
